X:3
T:Valse des Niglos
T:Les Niglos
R:valse musette
C:Gusti Malha
O:France
Z:id:hn-musette-3
M:3/4
L:1/8
Q:1/4=200
K:Em
^DEFGA |: "Em"B2 g3 ^d | f2 e2 c2 | (3BcB GGF=F | E6 | E2 F2 G2 | G2 F2 E2 |
"B7"^DE F4- | F6 | B2 f3 e | ^d2 c2 (3BcB | AAFF=FE | ^D6 | ^D2 E2 F2 |
F2 G3 ^D | "Em"FE G4 | z^D EFGA | (3BcB ^ABg^d | f2 e2 c2 | (3BcB GG F=F | E6 |
"E7"E2 F2 ^G2 | ^G2 A2 B2 | "Am"AB c4- | c4 (3A^G=G | FAAcce | eccAAF |
"Em"A3 G G2 | z G FE^DE | "Edim"G6 | "Ebdim"F4 (3FGF |1 "Em" E6- | E6 :|
[2 "Em"E6- | E2 E2 ^D2 ||
|: "D7"DEFGAB | cABcfe | "G"d3 B B2 | z g egeg | "D7"(3fgf ed c2 |
z f dfdf | "G"(3efe dc B2 |1 z2 E2 ^D2 | "D7"DEFGAB | cABcfe | "G"d3 B B2- |
B2 z2 (3^cd^d | "Em"e3 e e2 | "C7"g2 f2 e2 | "B7"^d6 | z2 E2 ^D2 :|
[2 "G"z2 z2 (3^cd^d | "Em"e3 e e2 | "C7"g2 f2 e2 | "B7"^d6- |
^d4 (3^c=d^d | "Em"e3 e e2 | "C7"g2 f2 e2 | "B7"b6 | z ||
^DEFGA | "Em"B2 g3 ^d | f2 e2 c2 | (3BcB GGF=F | E6 | E2 F2 G2 | G2 F2 E2 |
"B7"^DE F4- | F6 | B2 f3 e | ^d2 c2 (3BcB | AAFF=FE | ^D6 | ^D2 E2 F2 |
F2 G3 ^D | "Em"FE G4 | z^D EFGA | (3BcB ^ABg^d | f2 e2 c2 | (3BcB GGF=F | E6 |
"E7"E2 F2 ^G2 | ^G2 A2 B2 | "Am"AB c4- | c4 (3A^G=G | FAAcce | eccAAF |
"Em"A3 G G2 | z G FE^DE | "Edim"G6 | "Ebdim"F4 (3FGF | "Em"E6- | E6 ||
K:E
"E"B2 c2 d2 | c2 B2 c2 | e2 g2 e2 | c2 B2 G2 | B6 | "Edim"c6 | "B7"d6- | d6 |
B2 c2 a2 | f2 c2 e2 | (3ded c2 B2 | A6 | fdBdfb | "B7#5"=gdBdgb |
"E"g z fedB | c6 | B2 c2 d2 | c2 B2 c2 | e2 g2 e2 | c4 B2 | "E7"e6 | f6 |
"A"f6 | e6 | cdefde | cdefdf | "E"(3efe d2 =d2 | "C#7"cbg=fcB |
"F#7"^A4 c=d | "B7"d2 (3ded cd | "E"e6 | z ||
K:Em
^D EFGA | "Em"B2 g3 ^d | f2 e2 c2 | (3BcB GGF=F | E6 | E2 F2 G2 | G2 F2 E2 |
"B7"^DE F4- | F6 | B2 f3 e | ^d2 c2 (3BcB | AAFF=FE | ^D6 | ^D2 E2 F2 |
F2 G3 ^D | "Em"FE G4 | z^D EFGA | (3BcB ^ABg^d | f2 e2 c2 | (3BcB GGF=F | E6 |
"E7"E2 F2 ^G2 | ^G2 A2 B2 | "Am"AB c4- | c4 (3A^G=G | FAAcce | eccAAF |
"Em"A3 G G2 | z G FE^DE | "Edim"G6 | "Ebdim"F6 | "Em"(3EFE ^DEGB | e2 ||

